assets/images/circle-layers.svg

<?xml version="1.0" encoding="UTF-8"?> <svg xmlns="http://www.w3.org/2000/svg" width="71" height="71" viewBox="0 0 71 71" fill="none"><circle cx="35.7493" cy="35.252" r="34.5" fill="white" stroke="#E9E9E9"></circle><path d="M51.6944 33.9967C51.7172 33.7491 51.5883 33.512 51.3681 33.3966L45.6152 30.3808L51.2642 28.6349C51.5017 28.5615 51.6716 28.3521 51.6944 28.1042C51.7172 27.8566 51.5883 27.6196 51.3681 27.5042L39.9291 21.5078C39.7854 21.4325 39.6175 21.4169 39.4625 21.4649L20.6829 27.2688C20.4453 27.3425 20.2755 27.5519 20.2527 27.7995C20.2299 28.0474 20.359 28.2842 20.5792 28.3998L24.5288 30.4703C25.1524 30.7971 25.7881 31.091 26.435 31.3523L20.68 33.1622C20.4432 33.2366 20.2745 33.4463 20.2524 33.6934C20.2304 33.9408 20.3592 34.1769 20.579 34.292L26.3321 37.3078L20.6829 39.0537C20.4453 39.1272 20.2755 39.3366 20.2527 39.5845C20.2299 39.8321 20.359 40.0691 20.5792 40.1845L32.0182 46.1811C32.107 46.2276 32.2048 46.2511 32.3032 46.2511C32.3642 46.2511 32.4253 46.2423 32.4846 46.2238L39.4886 44.0592C39.8127 43.9592 39.9941 43.6151 39.8941 43.291C39.794 42.9671 39.45 42.7852 39.1259 42.8855L32.3639 44.9755L22.4681 39.7879L27.875 38.1166L32.0182 40.2886C32.107 40.3352 32.2048 40.3589 32.3032 40.3589C32.3642 40.3589 32.4253 40.3498 32.4846 40.3313L41.1158 37.6639C41.1177 37.6634 41.1196 37.6627 41.1215 37.6622L43.9507 36.7877L49.4792 39.6859L43.8264 41.4328C43.5023 41.5331 43.3206 41.8769 43.4209 42.201C43.5023 42.4647 43.7453 42.6341 44.0075 42.6341C44.0675 42.6341 44.1287 42.6252 44.1889 42.6065L51.2642 40.4199C51.5017 40.3464 51.6716 40.137 51.6944 39.8892C51.7172 39.6416 51.5883 39.4045 51.3681 39.2891L45.615 36.2733L51.2642 34.5274C51.5017 34.454 51.6716 34.2445 51.6944 33.9967ZM45.4615 31.6872L40.6162 36.5324L34.4908 38.4256L41.158 31.7585L43.9507 30.8952L45.4615 31.6872ZM29.5731 31.0843C30.9659 30.8108 32.2406 30.1301 33.248 29.1145C34.0064 30.1877 35.0275 31.0291 36.2211 31.5696C33.9882 31.7875 31.7454 31.6234 29.5731 31.0843ZM32.326 32.7872L28.2087 36.9045L25.6394 35.5579L28.9978 32.1994C30.0842 32.4828 31.1953 32.6795 32.326 32.7872ZM33.9704 32.8801C34.0957 32.8822 34.2207 32.8844 34.3457 32.8844C35.813 32.8844 37.2701 32.7309 38.7055 32.4254L33.9697 37.1612C33.92 37.2109 33.8814 37.2671 33.8521 37.3268L32.1883 38.9909L29.3483 37.5022L33.9704 32.8801ZM22.4679 28.003L39.5831 22.7134L49.4792 27.901L43.8293 29.6471C43.8288 29.6471 43.8281 29.6474 43.8276 29.6476L40.2005 30.7685C39.7509 30.9077 39.2984 31.0296 38.8444 31.1361L37.5558 30.7589C35.9723 30.2954 34.6638 29.2434 33.8711 27.7964C33.7718 27.6153 33.5882 27.496 33.3824 27.4792C33.1765 27.4622 32.9757 27.5502 32.8486 27.7131C31.7168 29.1611 30.0134 29.9917 28.1756 29.9917H26.368C25.9403 29.8038 25.5168 29.6013 25.0991 29.3823L22.4679 28.003ZM26.9964 32.4636L24.4995 34.9602L22.4588 33.8904L26.9964 32.4636ZM43.8295 35.5394C43.8288 35.5396 43.8281 35.5399 43.8271 35.5401L43.1306 35.7553L46.6013 32.2846L49.4792 33.7932L43.8295 35.5394Z" fill="#C4C4C4"></path></svg>

<svg xmlns="http://www.w3.org/2000/svg" width="71" height="71" fill="none"><circle cx="35.749" cy="35.252" r="34.5" fill="#fff" stroke="#E9E9E9"/><path d="M51.694 33.997a.614.614 0 0 0-.326-.6l-5.753-3.016 5.65-1.746a.614.614 0 0 0 .103-1.13L39.93 21.507a.614.614 0 0 0-.467-.043l-18.78 5.804a.615.615 0 0 0-.103 1.13l3.95 2.071c.623.327 1.26.621 1.906.882l-5.755 1.81a.614.614 0 0 0-.101 1.13l5.753 3.016-5.65 1.746a.614.614 0 0 0-.103 1.13l11.44 5.997a.614.614 0 0 0 .466.043l7.004-2.165a.614.614 0 0 0-.363-1.173l-6.762 2.09-9.896-5.188 5.407-1.671 4.143 2.172a.613.613 0 0 0 .467.042l8.63-2.667.006-.002 2.83-.874 5.528 2.898-5.653 1.747a.614.614 0 0 0 .363 1.173l7.075-2.186a.614.614 0 0 0 .104-1.13l-5.753-3.017 5.65-1.746a.614.614 0 0 0 .43-.53Zm-6.233-2.31-4.845 4.845-6.125 1.894 6.667-6.668 2.793-.863 1.51.792Zm-15.888-.603a7.087 7.087 0 0 0 3.675-1.97 7.333 7.333 0 0 0 2.973 2.456 19.645 19.645 0 0 1-6.648-.486Zm2.753 1.703-4.117 4.117-2.57-1.346 3.359-3.359c1.086.284 2.197.48 3.328.588Zm1.644.093c.126.002.25.004.376.004 1.467 0 2.924-.153 4.36-.459l-4.736 4.736a.617.617 0 0 0-.118.166l-1.664 1.664-2.84-1.489 4.622-4.622Zm-11.502-4.877 17.115-5.29 9.896 5.188-5.65 1.746h-.001L40.2 30.77c-.45.139-.902.26-1.356.367l-1.288-.377a6.14 6.14 0 0 1-3.685-2.963.615.615 0 0 0-1.022-.083 5.895 5.895 0 0 1-4.673 2.279h-1.808c-.428-.188-.851-.39-1.269-.61l-2.631-1.379Zm4.528 4.46L24.5 34.96l-2.041-1.07 4.537-1.426ZM43.83 35.54l-.003.001-.696.215 3.47-3.47 2.878 1.508-5.65 1.746Z" fill="#C4C4C4"/></svg>
